X:1
T: Evelyn M.E. Murray of Cambridge, Mass.
C:
R:Reel
Q: 232
K:G
M:4/4
L:1/8
|:D2|G2 G2 G2 Bc|d3e d2 B2|c3d ed cB|c2 A2 A2 D2|
G2 G2 G2 Bc|d3e d2 B2|c2 de dc BA|B2 G2 G2 d2|
g2 ga g2 d2|c2 cB c2 e2|g2 ga g2 d2|c2 A2 A2 d2|
g2 ga g2 d2|c2 cB c2 e2|d2 g2 fg af|g2 G2-G2:|
